; generated by PrusaSlicer 2.4.0+win64 on 2022-02-20 at 16:48:42 UTC

; 

; external perimeters extrusion width = 0.45mm
; perimeters extrusion width = 0.45mm
; infill extrusion width = 0.45mm
; solid infill extrusion width = 0.45mm
; top infill extrusion width = 0.40mm
; first layer extrusion width = 0.42mm

; external perimeters extrusion width = 0.45mm
; perimeters extrusion width = 0.45mm
; infill extrusion width = 0.45mm
; solid infill extrusion width = 0.45mm
; top infill extrusion width = 0.40mm
; first layer extrusion width = 0.42mm

M73 P0 R145
M73 Q0 S146
M201 X1000 Y1000 Z200 E5000 ; sets maximum accelerations, mm/sec^2
M203 X200 Y200 Z12 E120 ; sets maximum feedrates, mm/sec
M204 P1250 R1250 T1250 ; sets acceleration (P, T) and retract acceleration (R), mm/sec^2
M205 X8.00 Y8.00 Z0.40 E4.50 ; sets the jerk limits, mm/sec
M205 S0 T0 ; sets the minimum extruding and travel feed rate, mm/sec
M107
;TYPE:Custom
M862.3 P "MK3" ; printer model check
M862.1 P0.4 ; nozzle diameter check
M115 U3.10.0 ; tell printer latest fw version
G90 ; use absolute coordinates
M83 ; extruder relative mode
M104 S215 ; set extruder temp
M140 S60 ; set bed temp
M190 S60 ; wait for bed temp
M109 S215 ; wait for extruder temp
G28 W ; home all without mesh bed level
G80 ; mesh bed leveling
G1 Z0.2 F720
G1 Y-3 F1000 ; go outside print area
G92 E0
G1 X60 E9 F1000 ; intro line
G1 X100 E12.5 F1000 ; intro line
G92 E0
M221 S95

; Don't change E values below. Excessive value can damage the printer.
M907 E430 ; set extruder motor current
G21 ; set units to millimeters
G90 ; use absolute coordinates
M83 ; use relative distances for extrusion
M900 K0.05 ; Filament gcode LA 1.5
M900 K30 ; Filament gcode LA 1.0
M107
;LAYER_CHANGE
;Z:0.2
;HEIGHT:0.2
;BEFORE_LAYER_CHANGE
G92 E0.0
;0.2


G1 E-.8 F2100
G1 Z.4 F720
;AFTER_LAYER_CHANGE
;0.2
G1 X62.75 Y70.118 F10800
G1 Z.2 F720
G1 E.8 F2100
M204 S800
;TYPE:Skirt/Brim
;WIDTH:0.42
G1 F1200
G1 X64.375 Y69.075 E.06054
G1 X81.298 Y66.508 E.53669
G1 X185.265 Y66.508 E3.25981
G1 X186.572 Y66.9 E.04278
G1 X187.448 Y67.945 E.04278
G1 X187.642 Y68.885 E.03008
G1 X187.642 Y138.575 E2.18508
G1 X187.25 Y139.882 E.04278
M73 P0 R144
G1 X186.173 Y140.772 E.04383
G1 X180.023 Y143.312 E.2086
G1 X179.116 Y143.492 E.02901
G1 X64.735 Y143.492 E3.58633
G1 X63.428 Y143.1 E.04278
M73 Q0 S145
G1 X62.552 Y142.055 E.04278
G1 X62.358 Y141.115 E.03008
G1 X62.358 Y71.425 E2.18508
G1 X62.732 Y70.175 E.0409
M204 S1000
; printing object Arduino_case_bottom.stl id:1 copy 0
;WIPE_START
G1 F8640
G1 X64.375 Y69.075 E-.45644
G1 X65.674 Y68.878 E-.30356
;WIPE_END
G1 E-.04 F2100
G1 Z.6 F720
G1 X146.056 Y133.59 F10800
G1 Z.2 F720
G1 E.8 F2100
M204 S800
;TYPE:External perimeter
G1 F1200
G1 X149.704 Y133.59 E.11441
G1 X150.326 Y134.666 E.03896
G1 X151.529 Y136.75 E.07545
G1 X149.704 Y139.91 E.11441
G1 X146.056 Y139.91 E.11441
G1 X144.231 Y136.75 E.11441
G1 X146.026 Y133.642 E.11253
M204 S1000
G1 X146.056 Y133.19 F10800
;WIPE_START
G1 F8640
G1 X149.317 Y133.595 E-.76
;WIPE_END
G1 E-.04 F2100
G1 Z.6 F720
G1 X142.515 Y137.463 F10800
G1 Z.2 F720
G1 E.8 F2100
M204 S800
;TYPE:Perimeter
G1 F1200
G1 X129.387 Y137.463 E.41161
G1 X129.387 Y69.997 E2.11534
G1 X184.153 Y69.997 E1.71714
G1 X184.153 Y137.463 E2.11534
G1 X181.195 Y137.463 E.09273
G1 X178.655 Y140.003 E.11263
G1 X150.086 Y140.003 E.89576
G1 X151.964 Y136.75 E.11777
G1 X149.922 Y133.213 E.12806
G1 X145.838 Y133.213 E.12806
G1 X143.796 Y136.75 E.12806
G1 X145.674 Y140.003 E.11777
G1 X145.299 Y140.003 E.01176
G1 X142.759 Y137.463 E.11263
G1 X142.575 Y137.463 E.00576
M204 S1000
G1 X142.603 Y137.84 F10800
M204 S800
;TYPE:External perimeter
G1 F1200
G1 X129.01 Y137.84 E.42618
G1 X129.01 Y69.62 E2.13899
G1 X184.53 Y69.62 E1.74079
G1 X184.53 Y137.84 E2.13899
G1 X181.351 Y137.84 E.09966
G1 X178.811 Y140.38 E.11263
G1 X145.143 Y140.38 E1.05567
G1 X142.645 Y137.882 E.11075
M204 S1000
G1 X142.411 Y137.489 F10800
;WIPE_START
G1 F8640
G1 X139.354 Y137.872 E-.76
;WIPE_END
G1 E-.04 F2100
G1 Z.6 F720
G1 X144.542 Y138.748 F10800
G1 Z.2 F720
G1 E.8 F2100
M204 S800
;TYPE:Gap fill
;WIDTH:0.332924
G1 F1200
G1 X144.675 Y138.921 E.00525
M204 S1000
M204 S800
;WIDTH:0.285004
G1 X144.807 Y139.093 E.00438
M204 S1000
M204 S800
;WIDTH:0.237083
G1 X144.94 Y139.266 E.00351
M204 S1000
M204 S800
;WIDTH:0.189162
G1 X145.072 Y139.439 E.00265
M204 S1000
M204 S800
;WIDTH:0.141241
G1 X145.205 Y139.611 E.00178
M204 S1000
G1 X145.974 Y140.145 F10800
M204 S800
;WIDTH:0.135842
G1 F1200
G1 X149.786 Y140.145 E.02946
M204 S1000
;WIPE_START
G1 F8640
G1 X146.495 Y140.145 E-.76
;WIPE_END
G1 E-.04 F2100
G1 Z.6 F720
G1 X183.276 Y70.11 F10800
G1 Z.2 F720
G1 E.8 F2100
M204 S800
;TYPE:Solid infill
;WIDTH:0.420833
G1 F1200
G1 X183.87 Y70.705 E.02641
G1 X183.87 Y71.239 E.01679
G1 X182.911 Y70.28 E.04262
G1 X182.377 Y70.28 E.01679
G1 X183.87 Y71.773 E.06637
G1 X183.87 Y72.308 E.01679
G1 X181.842 Y70.28 E.09012
G1 X181.308 Y70.28 E.01679
G1 X183.87 Y72.842 E.11388
G1 X183.87 Y73.377 E.01679
G1 X180.773 Y70.28 E.13763
G1 X180.239 Y70.28 E.01679
G1 X183.87 Y73.911 E.16138
G1 X183.87 Y74.446 E.01679
G1 X179.704 Y70.28 E.18513
G1 X179.17 Y70.28 E.01679
G1 X183.87 Y74.98 E.20888
G1 X183.87 Y75.515 E.01679
G1 X178.635 Y70.28 E.23263
G1 X178.101 Y70.28 E.01679
G1 X183.87 Y76.049 E.25638
G1 X183.87 Y76.583 E.01679
G1 X177.567 Y70.28 E.28013
G1 X177.032 Y70.28 E.01679
G1 X183.87 Y77.118 E.30388
G1 X183.87 Y77.652 E.01679
G1 X176.498 Y70.28 E.32763
G1 X175.963 Y70.28 E.01679
G1 X183.87 Y78.187 E.35138
G1 X183.87 Y78.721 E.01679
G1 X175.429 Y70.28 E.37513
G1 X174.894 Y70.28 E.01679
G1 X183.87 Y79.256 E.39888
G1 X183.87 Y79.79 E.01679
G1 X174.36 Y70.28 E.42264
G1 X173.825 Y70.28 E.01679
G1 X183.87 Y80.325 E.44639
G1 X183.87 Y80.859 E.01679
G1 X173.291 Y70.28 E.47014
G1 X172.756 Y70.28 E.01679
G1 X183.87 Y81.394 E.49389
G1 X183.87 Y81.928 E.01679
G1 X172.222 Y70.28 E.51764
G1 X171.688 Y70.28 E.01679
G1 X183.87 Y82.462 E.54139
G1 X183.87 Y82.997 E.01679
G1 X171.153 Y70.28 E.56514
G1 X170.619 Y70.28 E.01679
G1 X183.87 Y83.531 E.58889
G1 X183.87 Y84.066 E.01679
G1 X170.084 Y70.28 E.61264
G1 X169.55 Y70.28 E.01679
G1 X183.87 Y84.6 E.63639
G1 X183.87 Y85.135 E.01679
G1 X169.015 Y70.28 E.66014
G1 X168.481 Y70.28 E.01679
G1 X183.87 Y85.669 E.68389
G1 X183.87 Y86.204 E.01679
G1 X167.946 Y70.28 E.70764
G1 X167.412 Y70.28 E.01679
M73 P0 R143
G1 X183.87 Y86.738 E.7314
G1 X183.87 Y87.272 E.01679
G1 X166.878 Y70.28 E.75515
G1 X166.343 Y70.28 E.01679
G1 X183.87 Y87.807 E.7789
G1 X183.87 Y88.341 E.01679
G1 X165.809 Y70.28 E.80265
G1 X165.274 Y70.28 E.01679
G1 X183.87 Y88.876 E.8264
G1 X183.87 Y89.41 E.01679
M73 Q0 S144
G1 X164.74 Y70.28 E.85015
G1 X164.205 Y70.28 E.01679
G1 X183.87 Y89.945 E.8739
G1 X183.87 Y90.479 E.01679
G1 X163.671 Y70.28 E.89765
G1 X163.136 Y70.28 E.01679
G1 X183.87 Y91.014 E.9214
G1 X183.87 Y91.548 E.01679
M73 P1 R143
M73 Q1 S144
G1 X162.602 Y70.28 E.94515
G1 X162.067 Y70.28 E.01679
G1 X183.87 Y92.083 E.9689
G1 X183.87 Y92.617 E.01679
G1 X161.533 Y70.28 E.99265
G1 X160.999 Y70.28 E.01679
G1 X183.87 Y93.151 E1.0164
G1 X183.87 Y93.686 E.01679
G1 X160.464 Y70.28 E1.04016
G1 X159.93 Y70.28 E.01679
G1 X183.87 Y94.22 E1.06391
G1 X183.87 Y94.755 E.01679
G1 X159.395 Y70.28 E1.08766
G1 X158.861 Y70.28 E.01679
G1 X183.87 Y95.289 E1.11141
G1 X183.87 Y95.824 E.01679
G1 X158.326 Y70.28 E1.13516
G1 X157.792 Y70.28 E.01679
G1 X183.87 Y96.358 E1.15891
G1 X183.87 Y96.893 E.01679
G1 X157.257 Y70.28 E1.18266
G1 X156.723 Y70.28 E.01679
G1 X183.87 Y97.427 E1.20641
G1 X183.87 Y97.961 E.01679
G1 X156.189 Y70.28 E1.23016
G1 X155.654 Y70.28 E.01679
G1 X183.87 Y98.496 E1.25391
G1 X183.87 Y99.03 E.01679
G1 X155.12 Y70.28 E1.27766
G1 X154.585 Y70.28 E.01679
G1 X183.87 Y99.565 E1.30141
G1 X183.87 Y100.099 E.01679
G1 X154.051 Y70.28 E1.32516
G1 X153.516 Y70.28 E.01679
G1 X183.87 Y100.634 E1.34892
G1 X183.87 Y101.168 E.01679
G1 X152.982 Y70.28 E1.37267
G1 X152.447 Y70.28 E.01679
G1 X183.87 Y101.703 E1.39642
G1 X183.87 Y102.237 E.01679
G1 X151.913 Y70.28 E1.42017
G1 X151.378 Y70.28 E.01679
G1 X183.87 Y102.772 E1.44392
G1 X183.87 Y103.306 E.01679
G1 X150.844 Y70.28 E1.46767
G1 X150.31 Y70.28 E.01679
G1 X183.87 Y103.84 E1.49142
G1 X183.87 Y104.375 E.01679
M73 P1 R142
G1 X149.775 Y70.28 E1.51517
G1 X149.241 Y70.28 E.01679
G1 X183.87 Y104.909 E1.53892
G1 X183.87 Y105.444 E.01679
G1 X148.706 Y70.28 E1.56267
G1 X148.172 Y70.28 E.01679
M73 Q1 S143
G1 X183.87 Y105.978 E1.58642
G1 X183.87 Y106.513 E.01679
G1 X147.637 Y70.28 E1.61017
G1 X147.103 Y70.28 E.01679
G1 X183.87 Y107.047 E1.63392
G1 X183.87 Y107.582 E.01679
G1 X146.568 Y70.28 E1.65768
G1 X146.034 Y70.28 E.01679
G1 X183.87 Y108.116 E1.68143
G1 X183.87 Y108.65 E.01679
G1 X145.5 Y70.28 E1.70518
G1 X144.965 Y70.28 E.01679
G1 X183.87 Y109.185 E1.72893
G1 X183.87 Y109.719 E.01679
G1 X144.431 Y70.28 E1.75268
G1 X143.896 Y70.28 E.01679
G1 X183.87 Y110.254 E1.77643
G1 X183.87 Y110.788 E.01679
G1 X143.362 Y70.28 E1.80018
G1 X142.827 Y70.28 E.01679
G1 X183.87 Y111.323 E1.82393
G1 X183.87 Y111.857 E.01679
G1 X142.293 Y70.28 E1.84768
G1 X141.758 Y70.28 E.01679
M73 P2 R142
M73 Q2 S143
G1 X183.87 Y112.392 E1.87143
G1 X183.87 Y112.926 E.01679
G1 X141.224 Y70.28 E1.89518
G1 X140.689 Y70.28 E.01679
G1 X183.87 Y113.461 E1.91893
G1 X183.87 Y113.995 E.01679
G1 X140.155 Y70.28 E1.94268
G1 X139.621 Y70.28 E.01679
G1 X183.87 Y114.529 E1.96644
G1 X183.87 Y115.064 E.01679
G1 X139.086 Y70.28 E1.99019
G1 X138.552 Y70.28 E.01679
G1 X183.87 Y115.598 E2.01394
G1 X183.87 Y116.133 E.01679
M73 P2 R141
G1 X138.017 Y70.28 E2.03769
G1 X137.483 Y70.28 E.01679
M73 Q2 S142
G1 X183.87 Y116.667 E2.06144
G1 X183.87 Y117.202 E.01679
G1 X136.948 Y70.28 E2.08519
G1 X136.414 Y70.28 E.01679
G1 X183.87 Y117.736 E2.10894
G1 X183.87 Y118.271 E.01679
G1 X135.879 Y70.28 E2.13269
G1 X135.345 Y70.28 E.01679
G1 X183.87 Y118.805 E2.15644
G1 X183.87 Y119.339 E.01679
G1 X134.811 Y70.28 E2.18019
G1 X134.276 Y70.28 E.01679
G1 X183.87 Y119.874 E2.20394
G1 X183.87 Y120.408 E.01679
G1 X133.742 Y70.28 E2.22769
G1 X133.207 Y70.28 E.01679
G1 X183.87 Y120.943 E2.25144
G1 X183.87 Y121.477 E.01679
G1 X132.673 Y70.28 E2.2752
G1 X132.138 Y70.28 E.01679
G1 X183.87 Y122.012 E2.29895
G1 X183.87 Y122.546 E.01679
G1 X131.604 Y70.28 E2.3227
G1 X131.069 Y70.28 E.01679
G1 X183.87 Y123.081 E2.34645
G1 X183.87 Y123.615 E.01679
G1 X130.535 Y70.28 E2.3702
G1 X130 Y70.28 E.01679
G1 X183.87 Y124.15 E2.39395
G1 X183.87 Y124.684 E.01679
G1 X129.67 Y70.484 E2.40864
G1 X129.67 Y71.018 E.01679
M73 P2 R140
G1 X183.87 Y125.218 E2.40864
G1 X183.87 Y125.753 E.01679
M73 P3 R140
M73 Q2 S141
G1 X129.67 Y71.553 E2.40864
G1 X129.67 Y72.087 E.01679
M73 Q3 S141
G1 X183.87 Y126.287 E2.40864
G1 X183.87 Y126.822 E.01679
G1 X129.67 Y72.622 E2.40864
G1 X129.67 Y73.156 E.01679
G1 X183.87 Y127.356 E2.40864
G1 X183.87 Y127.891 E.01679
G1 X129.67 Y73.69 E2.40864
G1 X129.67 Y74.225 E.01679
G1 X183.87 Y128.425 E2.40864
G1 X183.87 Y128.96 E.01679
G1 X129.67 Y74.759 E2.40864
G1 X129.67 Y75.294 E.01679
G1 X183.87 Y129.494 E2.40864
G1 X183.87 Y130.028 E.01679
G1 X129.67 Y75.828 E2.40864
G1 X129.67 Y76.363 E.01679
G1 X183.87 Y130.563 E2.40864
G1 X183.87 Y131.097 E.01679
G1 X129.67 Y76.897 E2.40864
G1 X129.67 Y77.432 E.01679
G1 X183.87 Y131.632 E2.40864
G1 X183.87 Y132.166 E.01679
G1 X129.67 Y77.966 E2.40864
G1 X129.67 Y78.5 E.01679
G1 X183.87 Y132.701 E2.40864
G1 X183.87 Y133.235 E.01679
M73 P3 R139
G1 X129.67 Y79.035 E2.40864
G1 X129.67 Y79.569 E.01679
G1 X183.87 Y133.77 E2.40864
M73 Q3 S140
G1 X183.87 Y134.304 E.01679
G1 X129.67 Y80.104 E2.40864
G1 X129.67 Y80.638 E.01679
G1 X183.87 Y134.839 E2.40864
G1 X183.87 Y135.373 E.01679
G1 X129.67 Y81.173 E2.40864
G1 X129.67 Y81.707 E.01679
G1 X183.87 Y135.907 E2.40864
G1 X183.87 Y136.442 E.01679
G1 X129.67 Y82.242 E2.40864
G1 X129.67 Y82.776 E.01679
G1 X183.87 Y136.976 E2.40864
G1 X183.87 Y137.18 E.0064
G1 X183.539 Y137.18 E.01039
G1 X129.67 Y83.311 E2.39395
G1 X129.67 Y83.845 E.01679
M73 P4 R139
M73 Q4 S140
G1 X183.005 Y137.18 E2.3702
G1 X182.471 Y137.18 E.01679
G1 X129.67 Y84.379 E2.34645
G1 X129.67 Y84.914 E.01679
G1 X181.936 Y137.18 E2.3227
G1 X181.402 Y137.18 E.01679
G1 X129.67 Y85.448 E2.29895
G1 X129.67 Y85.983 E.01679
G1 X180.973 Y137.286 E2.27988
G1 X180.705 Y137.553 E.01188
G1 X129.67 Y86.517 E2.26801
G1 X129.67 Y87.052 E.01679
G1 X180.438 Y137.82 E2.25613
G1 X180.171 Y138.087 E.01188
M73 P4 R138
G1 X129.67 Y87.586 E2.24425
G1 X129.67 Y88.121 E.01679
M73 Q4 S139
G1 X179.904 Y138.354 E2.23238
G1 X179.637 Y138.622 E.01188
G1 X129.67 Y88.655 E2.2205
G1 X129.67 Y89.189 E.01679
G1 X179.369 Y138.889 E2.20863
G1 X179.102 Y139.156 E.01188
G1 X129.67 Y89.724 E2.19675
G1 X129.67 Y90.258 E.01679
G1 X178.835 Y139.423 E2.18488
G1 X178.568 Y139.691 E.01188
G1 X129.67 Y90.793 E2.173
G1 X129.67 Y91.327 E.01679
G1 X178.063 Y139.72 E2.15056
G1 X177.528 Y139.72 E.01679
G1 X129.67 Y91.862 E2.12681
G1 X129.67 Y92.396 E.01679
G1 X176.994 Y139.72 E2.10306
G1 X176.459 Y139.72 E.01679
G1 X129.67 Y92.931 E2.07931
G1 X129.67 Y93.465 E.01679
G1 X175.925 Y139.72 E2.05556
G1 X175.39 Y139.72 E.01679
G1 X129.67 Y93.999 E2.03181
G1 X129.67 Y94.534 E.01679
G1 X174.856 Y139.72 E2.00806
G1 X174.322 Y139.72 E.01679
G1 X129.67 Y95.068 E1.98431
G1 X129.67 Y95.603 E.01679
G1 X173.787 Y139.72 E1.96056
G1 X173.253 Y139.72 E.01679
G1 X129.67 Y96.137 E1.93681
G1 X129.67 Y96.672 E.01679
M73 P4 R137
G1 X172.718 Y139.72 E1.91306
G1 X172.184 Y139.72 E.01679
M73 P5 R137
M73 Q5 S139
G1 X129.67 Y97.206 E1.88931
G1 X129.67 Y97.741 E.01679
M73 Q5 S138
G1 X171.649 Y139.72 E1.86555
G1 X171.115 Y139.72 E.01679
G1 X129.67 Y98.275 E1.8418
G1 X129.67 Y98.81 E.01679
G1 X170.58 Y139.72 E1.81805
G1 X170.046 Y139.72 E.01679
G1 X129.67 Y99.344 E1.7943
G1 X129.67 Y99.878 E.01679
G1 X169.512 Y139.72 E1.77055
G1 X168.977 Y139.72 E.01679
G1 X129.67 Y100.413 E1.7468
G1 X129.67 Y100.947 E.01679
G1 X168.443 Y139.72 E1.72305
G1 X167.908 Y139.72 E.01679
G1 X129.67 Y101.482 E1.6993
G1 X129.67 Y102.016 E.01679
G1 X167.374 Y139.72 E1.67555
G1 X166.839 Y139.72 E.01679
G1 X129.67 Y102.551 E1.6518
G1 X129.67 Y103.085 E.01679
G1 X166.305 Y139.72 E1.62805
G1 X165.77 Y139.72 E.01679
G1 X129.67 Y103.62 E1.6043
G1 X129.67 Y104.154 E.01679
G1 X165.236 Y139.72 E1.58055
G1 X164.702 Y139.72 E.01679
G1 X129.67 Y104.688 E1.55679
G1 X129.67 Y105.223 E.01679
G1 X164.167 Y139.72 E1.53304
G1 X163.633 Y139.72 E.01679
G1 X129.67 Y105.757 E1.50929
G1 X129.67 Y106.292 E.01679
G1 X163.098 Y139.72 E1.48554
G1 X162.564 Y139.72 E.01679
G1 X129.67 Y106.826 E1.46179
G1 X129.67 Y107.361 E.01679
G1 X162.029 Y139.72 E1.43804
G1 X161.495 Y139.72 E.01679
G1 X129.67 Y107.895 E1.41429
G1 X129.67 Y108.43 E.01679
G1 X160.96 Y139.72 E1.39054
G1 X160.426 Y139.72 E.01679
M73 P5 R136
G1 X129.67 Y108.964 E1.36679
G1 X129.67 Y109.499 E.01679
G1 X159.891 Y139.72 E1.34304
G1 X159.357 Y139.72 E.01679
M73 Q5 S137
G1 X129.67 Y110.033 E1.31929
G1 X129.67 Y110.567 E.01679
G1 X158.823 Y139.72 E1.29554
G1 X158.288 Y139.72 E.01679
G1 X129.67 Y111.102 E1.27179
G1 X129.67 Y111.636 E.01679
G1 X157.754 Y139.72 E1.24803
G1 X157.219 Y139.72 E.01679
G1 X129.67 Y112.171 E1.22428
G1 X129.67 Y112.705 E.01679
G1 X156.685 Y139.72 E1.20053
G1 X156.15 Y139.72 E.01679
G1 X151.076 Y134.646 E.22551
G1 X151.806 Y135.91 E.04588
G1 X155.616 Y139.72 E.16931
G1 X155.081 Y139.72 E.01679
G1 X152.225 Y136.864 E.12693
G1 X152.029 Y137.203 E.01229
G1 X154.547 Y139.72 E.11188
G1 X154.013 Y139.72 E.01679
G1 X151.834 Y137.541 E.09682
G1 X151.638 Y137.88 E.01229
G1 X153.478 Y139.72 E.08176
G1 X152.944 Y139.72 E.01679
G1 X151.443 Y138.219 E.0667
G1 X151.247 Y138.558 E.01229
G1 X152.409 Y139.72 E.05165
G1 X151.875 Y139.72 E.01679
G1 X151.051 Y138.897 E.03659
G1 X150.856 Y139.236 E.01229
G1 X151.34 Y139.72 E.02153
G1 X150.806 Y139.72 E.01679
G1 X150.536 Y139.45 E.01199
M204 S1000
;WIPE_START
G1 F8640
G1 X150.806 Y139.72 E-.08814
G1 X151.34 Y139.72 E-.12341
G1 X150.856 Y139.236 E-.15822
G1 X151.051 Y138.897 E-.09034
G1 X151.875 Y139.72 E-.26886
G1 X152.009 Y139.72 E-.03104
;WIPE_END
G1 E-.04 F2100
G1 Z.6 F720
G1 X149.53 Y133.1 F10800
G1 Z.2 F720
G1 E.8 F2100
M204 S800
G1 F1200
G1 X129.67 Y113.24 E.88258
G1 X129.67 Y113.774 E.01679
